X:985
T:Reel 985
M:4/4
K:Dmaj
L:1/8
ed|=cAGB AGEG|Addc dfed|cAAB AGEF|GBAF D2:|FG|Addc A2AB|cAGE FDDG|cdec A2ed|cAGE D2FG|Addc A2AB|cAGE FDEG|cdec dcBd|cAGE D2|
